X:1
T:Title
%%score { ( 1 3 6 ) | ( 2 4 5 ) }
L:1/8
Q:1/4=100
M:6/8
K:Eb
V:1 treble nm="Grand Piano"
V:3 treble 
V:6 treble 
V:2 bass 
V:4 bass 
V:5 bass 
V:1
 B2 c B2 [Ge] | [EG]2 [DF] E3 | E>DE G2 E | [EG]3 [DF]3 | [GB]2 [Ac] [GB]2 [Ge] | %5
w: Robert~Harkness * * *|||||
 [B,EG]2 [A,DF] [G,CE]3 | z3 .[B,G]3 | [A,DF]3 [G,E]3 | [B,A]->[B,EA][B,FA] [B,EA]2 [B,DA] | %9
w: ||||
 G2 c B3 | z3 .F3 | G2 c B3 | E2 F G2 [GB] | c2 d e3 |[M:25/32] z z/4 z z/4 z3/2 B2 z/4 | %15
w: ||||||
[M:3/4] (3:2:4[A,DF]4- [A,DF]/ [G,E]3 z3/2 | z2 B-B/4 z/4 z/ z2 | (3:2:4[GB]4- [GB]/ [EG]4- [EG]/ | %18
w: |||
 z2 A-A/4 z/4 z/ z2 | (3:2:4B4- B/ G4- G/ | (7:8:6E3/2-E3/8F3/4G3/8-G3/2[GB]3/4 | %21
w: |||
 z2 (3:2:2d3/2e3/2- e2 | %22
w: |
[M:13/16] (9:8:15E3/2-E/8E3/4-E/16F3/4-F/16G-G3/16-G/32B3/8-B-B/4[B,EG]- [B,EG]3/16-[B,EG]/32 | %23
w: |
[M:7/8] [A,DF]- [A,DF]2- [A,DF]/4 z/4 z/ z z2 |] %24
w: |
V:2
 [E,G,E]2 [E,A,E] [E,G,E]2 [E,B,] | [B,,B,]2 [B,,A,] [E,G,B,]3 | %2
 [C,F,=A,]>[C,F,A,][C,F,A,] [B,,E,B,]2 [B,,G,B,] | [B,,B,]3 [B,,B,]3 | [E,E]2 [E,E] [E,E]2 [E,B,] | %5
 B,,2 =B,, C,3 | C,>C,=B,, z G,>_B,, | B,,3 E,3 | B,,>C,D, C,2 B,, | [E,B,E]2 [E,A,E] [E,G,E]3 | %10
 B,,2 C, D,C,B,, | [E,B,E]2 [E,A,E] [E,G,E]3 | [E,G,]2 [E,A,E] [E,B,E]2 [E,E] | %13
 [A,EA]2 [A,DA] [A,CA]3 |[M:25/32] z3[K:bass] E3 z/4 |[M:3/4] (3:2:4B,,4- B,,/ E,3 z3/2 | %16
 z2 E-E/4 z/4 z/ z2 | (3:2:4[E,E]4- [E,E]/ [E,B,]4- [E,B,]/ | z2 z B,2- B,/4 z/4 z/ | %19
 (3:2:4[E,G,E]4- [E,G,E]/ [E,B,E]4- [E,B,E]/ | %20
 (7:8:6[E,G,]3/2-[E,G,]3/8[E,A,E]3/4[E,B,E]3/8-[E,B,E]3/2[E,E]3/4 | %21
 z2 (3:2:2[A,DA]3/2[A,CA]3/2- [A,CA]2 | %22
[M:13/16] (9:8:15[G,B,]3/2-[G,B,]/8[G,B,]3/4-[K:bass][G,B,]/16[F,B,D]3/4-[F,B,D]/16[E,B,E]-[E,B,E]3/16-[E,-B,E-]/32[E,G,E]3/8-[E,G,E]-[E,G,E]/4E,- E,3/16-E,/32 | %23
[M:7/8] z z2 E,- E,2- E,/4 z/4 z/ |] %24
V:3
 x6 | x6 | x6 | x6 | x6 | x6 | [A,E]>[A,E][=A,EF] E-[EB]>[B,EG] | x6 | .D3 z3 | x6 | %10
 [B,DA]2 [B,EA] [B,A]-[B,EA][B,DA] | x6 | x6 | x6 |[M:25/32] E>EF.G3/2 z [B,EG]3/4 |[M:3/4] x6 | %16
 (3:2:2[GB]2 [_G=A] .=G2 z [_Ac] | x6 | (3:2:2[FA]2 [=EG] F F2- [D-Fc-]/<[Dc]/ | x6 | x6 | %21
 c2- c/4 z/4 z/ z z2 |[M:13/16] x6 |[M:7/8] z z2 [G,E]- [G,E]2- [G,E]/4 z/4 z/ |] %24
V:4
 x6 | x6 | x6 | x6 | x6 | x6 | z3 _B,,3 | x6 | x6 | x6 | x6 | x6 | x6 | x6 | %14
[M:25/32] [G,B,]>[G,B,][G,B,D][K:bass][E,-B,]3/2E,E,3/4 |[M:3/4] x6 | z2 z B,2- B,/4 z/4 z/ | x6 | %18
 (3:2:2[B,,B,]2 [B,,B,] [B,,B,] B,,2 [B,,A,] | x6 | x6 | [A,EA]2- [A,EA]/4 z/4 z/ z z2 | %22
[M:13/16] x93/64[K:bass] x101/20 |[M:7/8] B,,- B,,2- B,,/4 z/4 z/ z z2 |] %24
V:5
 x6 | x6 | x6 | x6 | x6 | x6 | x6 | x6 | x6 | x6 | x6 | x6 | x6 | x6 | %14
[M:25/32] z z/4 z z/4 z3/2[K:bass] G,2 z/4 |[M:3/4] x6 | (3:2:2[E,E]2 [E,E] E, E,2 [E,E] | x6 | %18
 x6 | x6 | x6 | x6 |[M:13/16] x93/64[K:bass] x101/20 |[M:7/8] x7 |] %24
V:6
 x6 | x6 | x6 | x6 | x6 | x6 | x6 | x6 | x6 | x6 | x6 | x6 | x6 | x6 |[M:25/32] x25/4 |[M:3/4] x6 | %16
 z2 z [EG]2- [EG]/4 z/4 z/ | x6 | z2 z .D3 | x6 | x6 | x6 |[M:13/16] x6 |[M:7/8] x7 |] %24

